src/main/svg-png/flag/launcher-xxxhdpi.svg

<?xml version="1.0" encoding="UTF-8" standalone="no"?>
<svg
   xmlns:dc="http://purl.org/dc/elements/1.1/"
   xmlns:cc="http://creativecommons.org/ns#"
   xmlns:rdf="http://www.w3.org/1999/02/22-rdf-syntax-ns#"
   xmlns:svg="http://www.w3.org/2000/svg"
   xmlns="http://www.w3.org/2000/svg"
   xmlns:xlink="http://www.w3.org/1999/xlink"
   xmlns:sodipodi="http://sodipodi.sourceforge.net/DTD/sodipodi-0.dtd"
   xmlns:inkscape="http://www.inkscape.org/namespaces/inkscape"
   height="60"
   width="160"
   version="1.0"
   viewBox="-2100 -1470 933.33334 350"
   id="svg2"
   inkscape:version="0.92.3 (unknown)"
   sodipodi:docname="launcher-xxxhdpi.svg">
  <metadata
     id="metadata118">
    <rdf:RDF>
      <cc:Work
         rdf:about="">
        <dc:format>image/svg+xml</dc:format>
        <dc:type
           rdf:resource="http://purl.org/dc/dcmitype/StillImage" />
        <dc:title></dc:title>
      </cc:Work>
    </rdf:RDF>
  </metadata>
  <sodipodi:namedview
     pagecolor="#ffffff"
     bordercolor="#666666"
     borderopacity="1"
     objecttolerance="10"
     gridtolerance="10"
     guidetolerance="10"
     inkscape:pageopacity="0"
     inkscape:pageshadow="2"
     inkscape:window-width="1366"
     inkscape:window-height="717"
     id="namedview116"
     showgrid="false"
     fit-margin-top="0"
     fit-margin-left="0"
     fit-margin-right="0"
     fit-margin-bottom="0"
     inkscape:zoom="1.7293408"
     inkscape:cx="39.9471"
     inkscape:cy="71.854585"
     inkscape:window-x="0"
     inkscape:window-y="0"
     inkscape:window-maximized="1"
     inkscape:current-layer="svg2" />
  <defs
     id="defs4">
    <path
       id="D"
       d="m -31.5,0 33,0 a 30,30 0 0 0 30,-30 l 0,-10 a 30,30 0 0 0 -30,-30 l -33,0 z m 13,-13 19,0 a 19,19 0 0 0 19,-19 l 0,-6 a 19,19 0 0 0 -19,-19 l -19,0 z"
       inkscape:connector-curvature="0"
       style="fill-rule:evenodd" />
    <path
       id="E"
       transform="translate(-31.5,0)"
       d="m 0,0 63,0 0,-13 -51,0 0,-18 40,0 0,-12 -40,0 0,-14 48,0 0,-13 -60,0 z"
       inkscape:connector-curvature="0" />
    <path
       id="e"
       d="m -26.25,0 52.5,0 0,-12 -40.5,0 0,-16 33,0 0,-12 -33,0 0,-11 39.25,0 0,-12 -51.25,0 z"
       inkscape:connector-curvature="0" />
    <g
       id="G">
      <clipPath
         id="gcut">
        <path
           d="m -31.5,0 0,-70 63,0 0,70 z M 0,-47 l 0,12 31.5,0 0,-12 z"
           id="path11"
           inkscape:connector-curvature="0" />
      </clipPath>
      <use
         xlink:href="#O"
         clip-path="url(#gcut)"
         id="use13"
         x="0"
         y="0"
         width="100%"
         height="100%" />
      <rect
         y="-35"
         x="5"
         height="10"
         width="26.5"
         id="rect15" />
      <rect
         y="-35"
         x="21.5"
         height="35"
         width="10"
         id="rect17" />
    </g>
    <path
       id="M"
       d="m -31.5,0 12,0 0,-48 14,48 11,0 14,-48 0,48 12,0 0,-70 -17.5,0 -14,48 -14,-48 -17.5,0 z"
       inkscape:connector-curvature="0" />
    <path
       id="O"
       d="M 0,0 A 31.5,35 0 0 0 0,-70 31.5,35 0 0 0 0,0 m 0,-13 a 18.5,22 0 0 0 0,-44 18.5,22 0 0 0 0,44"
       inkscape:connector-curvature="0"
       style="fill-rule:evenodd" />
    <path
       id="P"
       d="m -31.5,0 13,0 0,-26 28,0 a 22,22 0 0 0 0,-44 l -40,0 z m 13,-39 27,0 a 9,9 0 0 0 0,-18 l -27,0 z"
       inkscape:connector-curvature="0"
       style="fill-rule:evenodd" />
    <g
       id="R">
      <use
         xlink:href="#P"
         id="use23"
         x="0"
         y="0"
         width="100%"
         height="100%" />
      <path
         d="m 28,0 c 0,-10 0,-32 -15,-32 l -19,0 c 22,0 22,22 22,32"
         id="path25"
         inkscape:connector-curvature="0" />
    </g>
    <path
       id="S"
       d="m -15.75,-22 c 0,7 6.75,10.5 16.75,10.5 10,0 14.74,-3.25 14.75,-7.75 C 15.75,-33.5 -31,-24.5 -30.75,-49.5 -30.5,-71 -6,-70 3,-70 c 9,0 26,4 25.75,21.25 l -15.25,0 c 0,-7.5 -7,-10.25 -15,-10.25 -7.75,0 -13.25,1.25 -13.25,8.5 -0.25,11.75 46.25,4 46.25,28.75 C 31.5,-3.5 13.5,0 0,0 -11.5,0 -31.55,-4.5 -31.5,-22 Z"
       inkscape:connector-curvature="0" />
    <g
       id="star"
       style="fill:#ffffff">
      <g
         id="c">
        <path
           id="t"
           transform="matrix(0.95105652,0.30901699,-0.30901699,0.95105652,-0.30901699,-0.04894348)"
           d="M 0,-1 0,0 0.5,0"
           inkscape:connector-curvature="0" />
        <use
           xlink:href="#t"
           transform="scale(-1,1)"
           id="use31"
           x="0"
           y="0"
           width="100%"
           height="100%" />
      </g>
      <use
         xlink:href="#c"
         transform="matrix(0.30901699,0.95105652,-0.95105652,0.30901699,0,0)"
         id="use33"
         x="0"
         y="0"
         width="100%"
         height="100%" />
      <use
         xlink:href="#c"
         transform="matrix(0.30901699,-0.95105652,0.95105652,0.30901699,0,0)"
         id="use35"
         x="0"
         y="0"
         width="100%"
         height="100%" />
      <use
         xlink:href="#c"
         transform="matrix(-0.80901699,0.58778525,-0.58778525,-0.80901699,0,0)"
         id="use37"
         x="0"
         y="0"
         width="100%"
         height="100%" />
      <use
         xlink:href="#c"
         transform="matrix(-0.80901699,-0.58778525,0.58778525,-0.80901699,0,0)"
         id="use39"
         x="0"
         y="0"
         width="100%"
         height="100%" />
    </g>
    <use
       id="star1"
       xlink:href="#star"
       transform="scale(31.5,31.5)"
       x="0"
       y="0"
       width="100%"
       height="100%" />
    <use
       id="star2"
       xlink:href="#star"
       transform="scale(26.25,26.25)"
       x="0"
       y="0"
       width="100%"
       height="100%" />
    <use
       id="star3"
       xlink:href="#star"
       transform="scale(21,21)"
       x="0"
       y="0"
       width="100%"
       height="100%" />
    <use
       id="star4"
       xlink:href="#star"
       transform="scale(15,15)"
       x="0"
       y="0"
       width="100%"
       height="100%" />
    <use
       id="star5"
       xlink:href="#star"
       transform="scale(10.5,10.5)"
       x="0"
       y="0"
       width="100%"
       height="100%" />
    <clipPath
       id="gcut-6">
      <path
         inkscape:connector-curvature="0"
         d="m -31.5,0 v -70 h 63 V 0 Z M 0,-47 v 12 h 31.5 v -12 z"
         id="path5" />
    </clipPath>
    <clipPath
       id="clipPath1291">
      <path
         inkscape:connector-curvature="0"
         d="m -31.5,0 v -70 h 63 V 0 Z M 0,-47 v 12 h 31.5 v -12 z"
         id="path1289" />
    </clipPath>
    <clipPath
       id="band-5">
      <circle
         cy="0"
         cx="0"
         r="735"
         id="circle50" />
    </clipPath>
  </defs>
  <clipPath
     id="band">
    <circle
       r="735"
       id="circle53"
       cx="0"
       cy="0" />
  </clipPath>
  <path
     inkscape:connector-curvature="0"
     style="fill:#009b3a;stroke-width:0.1190476"
     d="m -1666.6667,-1470 h 500 v 350 h -500 z"
     id="rect44" />
  <path
     d="m -1624.1667,-1295 207.5,132.5 207.5,-132.5 -207.5,-132.5 z"
     id="path46"
     inkscape:connector-curvature="0"
     style="fill:#fedf00;stroke-width:0.1190476" />
  <circle
     r="87.5"
     id="circle48"
     cx="-1416.6666"
     cy="-1295"
     style="fill:#002776;stroke-width:0.1190476" />
  <path
     d="m -2205,1470 a 1785,1785 0 0 1 3570,0 h -105 a 1680,1680 0 1 0 -3360,0 z"
     clip-path="url(#band-5)"
     id="path53"
     inkscape:connector-curvature="0"
     transform="matrix(0.1190476,0,0,0.1190476,-1416.6667,-1295)"
     style="fill:#ffffff" />
  <g
     transform="matrix(0.1190476,0,0,0.1190476,-1466.6667,-1120)"
     id="g85"
     style="fill:#009b3a">
    <use
       xlink:href="#O"
       y="-1697.5"
       transform="rotate(-7)"
       id="use55"
       x="0"
       width="100%"
       height="100%" />
    <use
       xlink:href="#R"
       y="-1697.5"
       transform="rotate(-4)"
       id="use57"
       x="0"
       width="100%"
       height="100%" />
    <use
       xlink:href="#D"
       y="-1697.5"
       transform="rotate(-1)"
       id="use59"
       x="0"
       width="100%"
       height="100%" />
    <use
       xlink:href="#E"
       y="-1697.5"
       transform="rotate(2)"
       id="use61"
       x="0"
       width="100%"
       height="100%" />
    <use
       xlink:href="#M"
       y="-1697.5"
       transform="rotate(5)"
       id="use63"
       x="0"
       width="100%"
       height="100%" />
    <use
       xlink:href="#e"
       y="-1697.5"
       transform="rotate(9.75)"
       id="use65"
       x="0"
       width="100%"
       height="100%" />
    <use
       xlink:href="#P"
       y="-1697.5"
       transform="rotate(14.5)"
       id="use67"
       x="0"
       width="100%"
       height="100%" />
    <use
       xlink:href="#R"
       y="-1697.5"
       transform="rotate(17.5)"
       id="use69"
       x="0"
       width="100%"
       height="100%" />
    <use
       xlink:href="#O"
       y="-1697.5"
       transform="rotate(20.5)"
       id="use71"
       x="0"
       width="100%"
       height="100%" />
    <use
       xlink:href="#G"
       y="-1697.5"
       transform="rotate(23.5)"
       id="use73"
       x="0"
       width="100%"
       height="100%" />
    <use
       xlink:href="#R"
       y="-1697.5"
       transform="rotate(26.5)"
       id="use75"
       x="0"
       width="100%"
       height="100%" />
    <use
       xlink:href="#E"
       y="-1697.5"
       transform="rotate(29.5)"
       id="use77"
       x="0"
       width="100%"
       height="100%" />
    <use
       xlink:href="#S"
       y="-1697.5"
       transform="rotate(32.5)"
       id="use79"
       x="0"
       width="100%"
       height="100%" />
    <use
       xlink:href="#S"
       y="-1697.5"
       transform="rotate(35.5)"
       id="use81"
       x="0"
       width="100%"
       height="100%" />
    <use
       xlink:href="#O"
       y="-1697.5"
       transform="rotate(38.5)"
       id="use83"
       x="0"
       width="100%"
       height="100%" />
  </g>
  <use
     id="αCMi"
     xlink:href="#star1"
     x="-600"
     y="-132"
     transform="matrix(0.1190476,0,0,0.1190476,-1416.6667,-1295)"
     width="100%"
     height="100%" />
  <use
     id="αCMa"
     xlink:href="#star1"
     x="-535"
     y="177"
     transform="matrix(0.1190476,0,0,0.1190476,-1416.6667,-1295)"
     width="100%"
     height="100%" />
  <use
     id="βCMa"
     xlink:href="#star2"
     x="-625"
     y="243"
     transform="matrix(0.1190476,0,0,0.1190476,-1416.6667,-1295)"
     width="100%"
     height="100%" />
  <use
     id="γCMa"
     xlink:href="#star4"
     x="-463"
     y="132"
     transform="matrix(0.1190476,0,0,0.1190476,-1416.6667,-1295)"
     width="100%"
     height="100%" />
  <use
     id="δCMa"
     xlink:href="#star2"
     x="-382"
     y="250"
     transform="matrix(0.1190476,0,0,0.1190476,-1416.6667,-1295)"
     width="100%"
     height="100%" />
  <use
     id="εCMa"
     xlink:href="#star3"
     x="-404"
     y="323"
     transform="matrix(0.1190476,0,0,0.1190476,-1416.6667,-1295)"
     width="100%"
     height="100%" />
  <use
     id="αVir"
     xlink:href="#star1"
     x="228"
     y="-228"
     transform="matrix(0.1190476,0,0,0.1190476,-1416.6667,-1295)"
     width="100%"
     height="100%" />
  <use
     id="αSco"
     xlink:href="#star1"
     x="515"
     y="258"
     transform="matrix(0.1190476,0,0,0.1190476,-1416.6667,-1295)"
     width="100%"
     height="100%" />
  <use
     id="βSco"
     xlink:href="#star3"
     x="617"
     y="265"
     transform="matrix(0.1190476,0,0,0.1190476,-1416.6667,-1295)"
     width="100%"
     height="100%" />
  <use
     id="εSco"
     xlink:href="#star2"
     x="545"
     y="323"
     transform="matrix(0.1190476,0,0,0.1190476,-1416.6667,-1295)"
     width="100%"
     height="100%" />
  <use
     id="θSco"
     xlink:href="#star2"
     x="368"
     y="477"
     transform="matrix(0.1190476,0,0,0.1190476,-1416.6667,-1295)"
     width="100%"
     height="100%" />
  <use
     id="ιSco"
     xlink:href="#star3"
     x="367"
     y="551"
     transform="matrix(0.1190476,0,0,0.1190476,-1416.6667,-1295)"
     width="100%"
     height="100%" />
  <use
     id="κSco"
     xlink:href="#star3"
     x="441"
     y="419"
     transform="matrix(0.1190476,0,0,0.1190476,-1416.6667,-1295)"
     width="100%"
     height="100%" />
  <use
     id="λSco"
     xlink:href="#star2"
     x="500"
     y="382"
     transform="matrix(0.1190476,0,0,0.1190476,-1416.6667,-1295)"
     width="100%"
     height="100%" />
  <use
     id="μSco"
     xlink:href="#star3"
     x="365"
     y="405"
     transform="matrix(0.1190476,0,0,0.1190476,-1416.6667,-1295)"
     width="100%"
     height="100%" />
  <use
     id="αHya"
     xlink:href="#star2"
     x="-280"
     y="30"
     transform="matrix(0.1190476,0,0,0.1190476,-1416.6667,-1295)"
     width="100%"
     height="100%" />
  <use
     id="γHya"
     xlink:href="#star3"
     x="200"
     y="-37"
     transform="matrix(0.1190476,0,0,0.1190476,-1416.6667,-1295)"
     width="100%"
     height="100%" />
  <use
     id="αCru"
     xlink:href="#star1"
     y="330"
     transform="matrix(0.1190476,0,0,0.1190476,-1416.6667,-1295)"
     x="0"
     width="100%"
     height="100%" />
  <use
     id="βCru"
     xlink:href="#star2"
     x="85"
     y="184"
     transform="matrix(0.1190476,0,0,0.1190476,-1416.6667,-1295)"
     width="100%"
     height="100%" />
  <use
     id="γCru"
     xlink:href="#star2"
     y="118"
     transform="matrix(0.1190476,0,0,0.1190476,-1416.6667,-1295)"
     x="0"
     width="100%"
     height="100%" />
  <use
     id="δCru"
     xlink:href="#star3"
     x="-74"
     y="184"
     transform="matrix(0.1190476,0,0,0.1190476,-1416.6667,-1295)"
     width="100%"
     height="100%" />
  <use
     id="εCru"
     xlink:href="#star4"
     x="-37"
     y="235"
     transform="matrix(0.1190476,0,0,0.1190476,-1416.6667,-1295)"
     width="100%"
     height="100%" />
  <use
     id="αTrA"
     xlink:href="#star2"
     x="220"
     y="495"
     transform="matrix(0.1190476,0,0,0.1190476,-1416.6667,-1295)"
     width="100%"
     height="100%" />
  <use
     id="βTrA"
     xlink:href="#star3"
     x="283"
     y="430"
     transform="matrix(0.1190476,0,0,0.1190476,-1416.6667,-1295)"
     width="100%"
     height="100%" />
  <use
     id="γTrA"
     xlink:href="#star3"
     x="162"
     y="412"
     transform="matrix(0.1190476,0,0,0.1190476,-1416.6667,-1295)"
     width="100%"
     height="100%" />
  <use
     id="αCar"
     xlink:href="#star1"
     x="-295"
     y="390"
     transform="matrix(0.1190476,0,0,0.1190476,-1416.6667,-1295)"
     width="100%"
     height="100%" />
  <use
     id="σOct"
     xlink:href="#star5"
     y="575"
     transform="matrix(0.1190476,0,0,0.1190476,-1416.6667,-1295)"
     x="0"
     width="100%"
     height="100%" />
</svg>

<?xml version="1.0" encoding="UTF-8"?>
<svg version="1.0" xmlns="http://www.w3.org/2000/svg" xmlns:xlink="http://www.w3.org/1999/xlink" width="720" height="504" viewBox="-2100 -1470 4200 2940">
	<defs>
		<path id="D" d="M -31.5,0 h 33 a 30 30 0 0 0 30,-30 v -10 a 30 30 0 0 0 -30,-30 H -31.5 z M -18.5,-13 h 19 a 19 19 0 0 0 19,-19 v -6 a 19 19 0 0 0 -19,-19 H -18.5 z" fill-rule="evenodd"/>
		<path id="E" d="M 0,0 h 63 v -13 H 12 v -18 h 40 v -12 h -40 v -14 H 60 v -13 H 0 z" transform="translate(-31.5)"/>
		<path id="e" d="M -26.25,0 h 52.5 v -12 h -40.5 v -16 h 33 v -12 h -33 v -11 H 25 v -12 H -26.25 z"/>
		<g id="G">
			<clipPath id="gcut">
				<path d="M -31.5,0 v -70 h 63 v 70 z M 0,-47 v 12 h 31.5 v -12 z"/>
			</clipPath>
			<use xlink:href="#O" clip-path="url(#gcut)"/>
			<rect x="5" y="-35" width="26.5" height="10"/>
			<rect x="21.5" y="-35" width="10" height="35"/>
		</g>
		<path id="M" d="M -31.5,0 h 12 v -48 l 14,48 h 11 l 14,-48 V 0 h 12 V -70 h -17.5 l -14,48 l -14,-48 H -31.5 z"/>
		<path id="O" d="M 0,0 a 31.5 35 0 0 0 0,-70 a 31.5 35 0 0 0 0,70 M 0,-13 a 18.5 22 0 0 0 0,-44 a 18.5 22 0 0 0 0,44" fill-rule="evenodd"/>
		<path id="P" d="M -31.5,0 h 13 v -26 h 28 a 22 22 0 0 0 0,-44 h -40 z M -18.5,-39 h 27 a 9 9 0 0 0 0,-18 h -27 z" fill-rule="evenodd"/>
		<g id="R">
			<use xlink:href="#P"/>
			<path d="M 28,0 c 0,-10 0,-32 -15,-32 h -19 c 22,0 22,22 22,32"/>
		</g>
		<path id="S" d="M -15.75,-22 C -15.75,-15 -9,-11.5 1,-11.5 C 11,-11.5 15.74,-14.75 15.75,-19.25 C 15.75,-33.5 -31,-24.5 -30.75,-49.5 C -30.5,-71 -6,-70 3,-70 C 12,-70 29,-66 28.75,-48.75 L 13.5,-48.75 C 13.5,-56.25 6.5,-59 -1.5,-59 C -9.25,-59 -14.75,-57.75 -14.75,-50.5 C -15,-38.75 31.5,-46.5 31.5,-21.75 C 31.5,-3.5 13.5,0 0,0 C -11.5,0 -31.55,-4.5 -31.5,-22 z"/>
		<g id="star" fill="#fff">
			<g id="c">
				<path id="t" d="M 0,-1 v 1 h .5" transform="rotate(18 0,-1)"/>
				<use xlink:href="#t" transform="scale(-1,1)"/>
			</g>
			<use xlink:href="#c" transform="rotate(72)"/>
			<use xlink:href="#c" transform="rotate(-72)"/>
			<use xlink:href="#c" transform="rotate(144)"/>
			<use xlink:href="#c" transform="rotate(-144)"/>
		</g>
		<use id="star1" xlink:href="#star" transform="scale(31.5)"/>
		<use id="star2" xlink:href="#star" transform="scale(26.25)"/>
		<use id="star3" xlink:href="#star" transform="scale(21)"/>
		<use id="star4" xlink:href="#star" transform="scale(15)"/>
		<use id="star5" xlink:href="#star" transform="scale(10.5)"/>
	</defs>
	<rect x="-50%" y="-50%" width="100%" height="100%" fill="#009b3a"/>
	<path d="M -1743,0 0,1113 1743,0 0,-1113 z" fill="#fedf00"/>
	<circle r="735" fill="#002776"/>
	<clipPath id="band">
		<circle r="735"/>
	</clipPath>
	<path d="M -2205,1470 a 1785 1785 0 0 1 3570,0 h -105 a 1680 1680 0 1 0 -3360,0 z" clip-path="url(#band)" fill="#fff"/>
	<g fill="#009b3a" transform="translate(-420,1470)">
		<use xlink:href="#O" y="-1697.5" transform="rotate(-7)"/>
		<use xlink:href="#R" y="-1697.5" transform="rotate(-4)"/>
		<use xlink:href="#D" y="-1697.5" transform="rotate(-1)"/>
		<use xlink:href="#E" y="-1697.5" transform="rotate(2)"/>
		<use xlink:href="#M" y="-1697.5" transform="rotate(5)"/>
		<use xlink:href="#e" y="-1697.5" transform="rotate(9.75)"/>
		<use xlink:href="#P" y="-1697.5" transform="rotate(14.5)"/>
		<use xlink:href="#R" y="-1697.5" transform="rotate(17.5)"/>
		<use xlink:href="#O" y="-1697.5" transform="rotate(20.5)"/>
		<use xlink:href="#G" y="-1697.5" transform="rotate(23.5)"/>
		<use xlink:href="#R" y="-1697.5" transform="rotate(26.5)"/>
		<use xlink:href="#E" y="-1697.5" transform="rotate(29.5)"/>
		<use xlink:href="#S" y="-1697.5" transform="rotate(32.5)"/>
		<use xlink:href="#S" y="-1697.5" transform="rotate(35.5)"/>
		<use xlink:href="#O" y="-1697.5" transform="rotate(38.5)"/>
	</g>
	<use id="αCMi" xlink:href="#star1" x="-600" y="-132"/>
	<use id="αCMa" xlink:href="#star1" x="-535" y="177"/>
	<use id="βCMa" xlink:href="#star2" x="-625" y="243"/>
	<use id="γCMa" xlink:href="#star4" x="-463" y="132"/>
	<use id="δCMa" xlink:href="#star2" x="-382" y="250"/>
	<use id="εCMa" xlink:href="#star3" x="-404" y="323"/>
	<use id="αVir" xlink:href="#star1" x="228" y="-228"/>
	<use id="αSco" xlink:href="#star1" x="515" y="258"/>
	<use id="βSco" xlink:href="#star3" x="617" y="265"/>
	<use id="εSco" xlink:href="#star2" x="545" y="323"/>
	<use id="θSco" xlink:href="#star2" x="368" y="477"/>
	<use id="ιSco" xlink:href="#star3" x="367" y="551"/>
	<use id="κSco" xlink:href="#star3" x="441" y="419"/>
	<use id="λSco" xlink:href="#star2" x="500" y="382"/>
	<use id="μSco" xlink:href="#star3" x="365" y="405"/>
	<use id="αHya" xlink:href="#star2" x="-280" y="30"/>
	<use id="γHya" xlink:href="#star3" x="200" y="-37"/>
	<use id="αCru" xlink:href="#star1" y="330"/>
	<use id="βCru" xlink:href="#star2" x="85" y="184"/>
	<use id="γCru" xlink:href="#star2" y="118"/>
	<use id="δCru" xlink:href="#star3" x="-74" y="184"/>
	<use id="εCru" xlink:href="#star4" x="-37" y="235"/>
	<use id="αTrA" xlink:href="#star2" x="220" y="495"/>
	<use id="βTrA" xlink:href="#star3" x="283" y="430"/>
	<use id="γTrA" xlink:href="#star3" x="162" y="412"/>
	<use id="αCar" xlink:href="#star1" x="-295" y="390"/>
	<use id="σOct" xlink:href="#star5" y="575"/>
</svg>
